X:1
T: The Highland Wedding
C: trad.
A: arr. T. Traub 2-24-2004
M: 2/4
R: reel
L: 1/8
K: A
e/A/ |\
"A"ce Aa | a/g/f/e/ aA | ce A/a/e/c/ | "Bm"dB "E"Be/A/ |\
"A"ce Aa | "D"a/g/f/e/ "A"aA | "A"A/c/e/c/ "E"B/c/d/e/ | "A"cA A :|
|: c/d/ |\
"A"ce ec/A/ | "D"df fe/d/ | "A"ce "F#m"f/e/c/A/ | "Bm"dB "E"Bc/d/ |\
"A"ce ec/A/ | "D"df fe/d/ | "A"c/d/e/c/ "E"B/c/d/e/ | "A"cA A :|
